images-src/rabbit_explode_07.svg

<?xml version="1.0" encoding="UTF-8" standalone="no"?>
<!-- Created with Inkscape (http://www.inkscape.org/) -->

<svg
   xmlns:dc="http://purl.org/dc/elements/1.1/"
   xmlns:cc="http://creativecommons.org/ns#"
   xmlns:rdf="http://www.w3.org/1999/02/22-rdf-syntax-ns#"
   xmlns:svg="http://www.w3.org/2000/svg"
   xmlns="http://www.w3.org/2000/svg"
   xmlns:sodipodi="http://sodipodi.sourceforge.net/DTD/sodipodi-0.dtd"
   xmlns:inkscape="http://www.inkscape.org/namespaces/inkscape"
   width="96"
   height="96"
   id="svg2"
   version="1.1"
   inkscape:version="0.48.4 r9939"
   sodipodi:docname="rabbit_explode_07.svg">
  <defs
     id="defs4" />
  <sodipodi:namedview
     id="base"
     pagecolor="#ffffff"
     bordercolor="#666666"
     borderopacity="1.0"
     inkscape:pageopacity="0.0"
     inkscape:pageshadow="2"
     inkscape:zoom="8.8645833"
     inkscape:cx="48"
     inkscape:cy="48"
     inkscape:document-units="px"
     inkscape:current-layer="layer1"
     showgrid="false"
     inkscape:window-width="1920"
     inkscape:window-height="1031"
     inkscape:window-x="0"
     inkscape:window-y="26"
     inkscape:window-maximized="1" />
  <metadata
     id="metadata7">
    <rdf:RDF>
      <cc:Work
         rdf:about="">
        <dc:format>image/svg+xml</dc:format>
        <dc:type
           rdf:resource="http://purl.org/dc/dcmitype/StillImage" />
        <dc:title />
      </cc:Work>
    </rdf:RDF>
  </metadata>
  <g
     inkscape:label="Layer 1"
     inkscape:groupmode="layer"
     id="layer1"
     transform="translate(0,-956.3622)">
    <g
       id="g4308"
       transform="matrix(-0.50784354,0.86144932,-0.86144932,-0.50784354,957.65962,1489.5189)"
       style="opacity:0.2">
      <path
         d="m 20.906667,29.475555 c 0,0.648015 -1.512283,1.173334 -3.377778,1.173334 -1.865495,0 -3.377778,-0.525319 -3.377778,-1.173334 0,-0.648014 1.512283,-1.173333 3.377778,-1.173333 1.865495,0 3.377778,0.525319 3.377778,1.173333 z"
         sodipodi:ry="1.1733333"
         sodipodi:rx="3.3777778"
         sodipodi:cy="29.475555"
         sodipodi:cx="17.528889"
         id="path3766-3"
         style="fill:#ffffff;fill-opacity:1;stroke:#000000;stroke-opacity:1"
         sodipodi:type="arc"
         transform="matrix(0.50825872,0.03805256,-0.09563704,1.1025448,44.724407,985.73882)" />
      <path
         transform="matrix(0.43753699,-0.0096245,0.02351804,1.0691489,44.148558,986.07253)"
         d="m 17.493333,27.946667 c 0,1.256754 -1.655552,2.275555 -3.697778,2.275555 -2.042226,0 -3.697778,-1.018801 -3.697778,-2.275555 0,-1.256755 1.655552,-2.275556 3.697778,-2.275556 2.042226,0 3.697778,1.018801 3.697778,2.275556 z"
         sodipodi:ry="2.2755556"
         sodipodi:rx="3.6977777"
         sodipodi:cy="27.946667"
         sodipodi:cx="13.795555"
         id="path3796-0"
         style="fill:#ffffff;fill-opacity:1;stroke:#000000;stroke-opacity:1"
         sodipodi:type="arc" />
    </g>
    <path
       sodipodi:type="arc"
       style="opacity:0.2;fill:#ffffff;fill-opacity:1;stroke:#000000;stroke-opacity:1"
       id="path3792-5"
       sodipodi:cx="19.768888"
       sodipodi:cy="22.151112"
       sodipodi:rx="1.4222223"
       sodipodi:ry="3.8044446"
       d="m 21.191111,22.151112 c 0,2.101136 -0.636751,3.804444 -1.422223,3.804444 -0.785471,0 -1.422222,-1.703308 -1.422222,-3.804444 0,-2.101137 0.636751,-3.804445 1.422222,-3.804445 0.785472,0 1.422223,1.703308 1.422223,3.804445 z"
       transform="matrix(0.60017777,-0.79986662,0.79986662,0.60017777,33.431377,1020.1669)" />
    <path
       sodipodi:type="arc"
       style="opacity:0.2;fill:#ffffff;fill-opacity:1;stroke:#000000;stroke-opacity:1"
       id="path3792"
       sodipodi:cx="19.768888"
       sodipodi:cy="22.151112"
       sodipodi:rx="1.4222223"
       sodipodi:ry="3.8044446"
       d="m 21.191111,22.151112 c 0,2.101136 -0.636751,3.804444 -1.422223,3.804444 -0.785471,0 -1.422222,-1.703308 -1.422222,-3.804444 0,-2.101137 0.636751,-3.804445 1.422222,-3.804445 0.785472,0 1.422223,1.703308 1.422223,3.804445 z"
       transform="matrix(0.70523854,0.70897013,-0.70897013,0.70523854,27.898675,980.79744)" />
    <path
       sodipodi:type="arc"
       style="opacity:0.2;fill:#ffffff;fill-opacity:1;stroke:#000000;stroke-opacity:1"
       id="path3772"
       sodipodi:cx="10.204445"
       sodipodi:cy="7.6088891"
       sodipodi:rx="3.3777778"
       sodipodi:ry="1.6355555"
       d="m 13.582223,7.6088891 c 0,0.9032924 -1.512283,1.6355555 -3.377778,1.6355555 -1.8654953,0 -3.3777779,-0.7322631 -3.3777779,-1.6355555 0,-0.9032924 1.5122826,-1.6355555 3.3777779,-1.6355555 1.865495,0 3.377778,0.7322631 3.377778,1.6355555 z"
       transform="matrix(0.67152301,-0.45870303,0.49713374,0.88903521,14.879132,997.95655)" />
    <path
       sodipodi:type="arc"
       style="opacity:0.2;fill:#4d4d4b;fill-opacity:1;stroke:#000000;stroke-opacity:1"
       id="path3772-7"
       sodipodi:cx="10.204445"
       sodipodi:cy="7.6088891"
       sodipodi:rx="3.3777778"
       sodipodi:ry="1.6355555"
       d="m 13.582223,7.6088891 c 0,0.9032924 -1.512283,1.6355555 -3.377778,1.6355555 -1.8654953,0 -3.3777779,-0.7322631 -3.3777779,-1.6355555 0,-0.9032924 1.5122826,-1.6355555 3.3777779,-1.6355555 1.865495,0 3.377778,0.7322631 3.377778,1.6355555 z"
       transform="matrix(-0.7939043,-0.27484169,0.25491287,-0.86049979,69.690659,1011.9207)" />
    <g
       id="g4312"
       transform="matrix(-0.30935816,-0.95094559,0.95094559,-0.30935816,-919.8718,1372.1354)"
       style="opacity:0.2">
      <path
         transform="matrix(0.49816262,0.01101159,-0.0259843,0.98356126,33.573584,989.84933)"
         d="m 20.906667,29.475555 c 0,0.648015 -1.512283,1.173334 -3.377778,1.173334 -1.865495,0 -3.377778,-0.525319 -3.377778,-1.173334 0,-0.648014 1.512283,-1.173333 3.377778,-1.173333 1.865495,0 3.377778,0.525319 3.377778,1.173333 z"
         sodipodi:ry="1.1733333"
         sodipodi:rx="3.3777778"
         sodipodi:cy="29.475555"
         sodipodi:cx="17.528889"
         id="path3766"
         style="fill:#ffffff;fill-opacity:1;stroke:#000000;stroke-opacity:1"
         sodipodi:type="arc" />
      <path
         transform="matrix(0.39355872,-0.00844164,0.02458259,1.1460676,35.437939,984.17466)"
         d="m 17.493333,27.946667 c 0,1.256754 -1.655552,2.275555 -3.697778,2.275555 -2.042226,0 -3.697778,-1.018801 -3.697778,-2.275555 0,-1.256755 1.655552,-2.275556 3.697778,-2.275556 2.042226,0 3.697778,1.018801 3.697778,2.275556 z"
         sodipodi:ry="2.2755556"
         sodipodi:rx="3.6977777"
         sodipodi:cy="27.946667"
         sodipodi:cx="13.795555"
         id="path3796"
         style="fill:#ffffff;fill-opacity:1;stroke:#000000;stroke-opacity:1"
         sodipodi:type="arc" />
    </g>
    <g
       id="g4303"
       transform="matrix(-0.02089795,-0.99978162,0.99978162,-0.02089795,-960.84812,1075.6061)"
       style="opacity:0.2">
      <path
         transform="matrix(0.77053203,0.12335422,-0.06851811,0.95498434,34.228385,987.9455)"
         d="m 21.617778,9.8488894 c 0,2.1796836 -2.164952,3.9466666 -4.835555,3.9466666 -2.670604,0 -4.835556,-1.766983 -4.835556,-3.9466666 0,-2.1796839 2.164952,-3.9466668 4.835556,-3.9466668 2.670603,0 4.835555,1.7669829 4.835555,3.9466668 z"
         sodipodi:ry="3.9466667"
         sodipodi:rx="4.8355556"
         sodipodi:cy="9.8488894"
         sodipodi:cx="16.782223"
         id="path3770"
         style="fill:#ffffff;fill-opacity:1;stroke:#000000;stroke-opacity:1"
         sodipodi:type="arc" />
      <path
         transform="matrix(1.1870228,-0.07665294,0.07665294,1.1870228,20.141619,989.3872)"
         d="m 20.479999,9.7066669 c 0,0.2160047 -0.175106,0.3911111 -0.391111,0.3911111 -0.216005,0 -0.391111,-0.1751064 -0.391111,-0.3911111 0,-0.2160047 0.175106,-0.3911111 0.391111,-0.3911111 0.216005,0 0.391111,0.1751064 0.391111,0.3911111 z"
         sodipodi:ry="0.39111111"
         sodipodi:rx="0.39111111"
         sodipodi:cy="9.7066669"
         sodipodi:cx="20.088888"
         id="path3794"
         style="fill:#ffffff;fill-opacity:1;stroke:#000000;stroke-opacity:1"
         sodipodi:type="arc" />
      <path
         transform="matrix(1.2974769,-0.0837856,0.06987435,1.0820517,21.285742,990.4248)"
         d="m 20.479999,9.7066669 c 0,0.2160047 -0.175106,0.3911111 -0.391111,0.3911111 -0.216005,0 -0.391111,-0.1751064 -0.391111,-0.3911111 0,-0.2160047 0.175106,-0.3911111 0.391111,-0.3911111 0.216005,0 0.391111,0.1751064 0.391111,0.3911111 z"
         sodipodi:ry="0.39111111"
         sodipodi:rx="0.39111111"
         sodipodi:cy="9.7066669"
         sodipodi:cx="20.088888"
         id="path3794-0"
         style="fill:#ffffff;fill-opacity:1;stroke:#000000;stroke-opacity:1"
         sodipodi:type="arc" />
    </g>
  </g>
</svg>

<?xml version="1.0" encoding="UTF-8" standalone="no"?>
<!-- Created with Inkscape (http://www.inkscape.org/) -->

<svg
   xmlns:dc="http://purl.org/dc/elements/1.1/"
   xmlns:cc="http://creativecommons.org/ns#"
   xmlns:rdf="http://www.w3.org/1999/02/22-rdf-syntax-ns#"
   xmlns:svg="http://www.w3.org/2000/svg"
   xmlns="http://www.w3.org/2000/svg"
   xmlns:sodipodi="http://sodipodi.sourceforge.net/DTD/sodipodi-0.dtd"
   xmlns:inkscape="http://www.inkscape.org/namespaces/inkscape"
   width="96"
   height="96"
   id="svg2"
   version="1.1"
   inkscape:version="0.91 r13725"
   sodipodi:docname="rabbot_explode_07.svg">
  <defs
     id="defs4" />
  <sodipodi:namedview
     id="base"
     pagecolor="#ffffff"
     bordercolor="#666666"
     borderopacity="1.0"
     inkscape:pageopacity="0.0"
     inkscape:pageshadow="2"
     inkscape:zoom="8.8645833"
     inkscape:cx="28.258519"
     inkscape:cy="48"
     inkscape:document-units="px"
     inkscape:current-layer="layer1"
     showgrid="false"
     inkscape:window-width="1920"
     inkscape:window-height="1016"
     inkscape:window-x="0"
     inkscape:window-y="27"
     inkscape:window-maximized="1" />
  <metadata
     id="metadata7">
    <rdf:RDF>
      <cc:Work
         rdf:about="">
        <dc:format>image/svg+xml</dc:format>
        <dc:type
           rdf:resource="http://purl.org/dc/dcmitype/StillImage" />
        <dc:title />
      </cc:Work>
    </rdf:RDF>
  </metadata>
  <g
     inkscape:label="Layer 1"
     inkscape:groupmode="layer"
     id="layer1"
     transform="translate(0,-956.3622)">
    <g
       id="g4308"
       transform="matrix(-0.50784354,0.86144932,-0.86144932,-0.50784354,957.65962,1489.5189)"
       style="opacity:0.2;fill:#ff0000">
      <path
         d="m 20.906667,29.475555 a 3.3777778,1.1733333 0 0 1 -3.377778,1.173334 3.3777778,1.1733333 0 0 1 -3.377778,-1.173334 3.3777778,1.1733333 0 0 1 3.377778,-1.173333 3.3777778,1.1733333 0 0 1 3.377778,1.173333 z"
         sodipodi:ry="1.1733333"
         sodipodi:rx="3.3777778"
         sodipodi:cy="29.475555"
         sodipodi:cx="17.528889"
         id="path3766-3"
         style="fill:#ff0000;fill-opacity:1;stroke:#000000;stroke-opacity:1"
         sodipodi:type="arc"
         transform="matrix(0.50825872,0.03805256,-0.09563704,1.1025448,44.724407,985.73882)" />
      <path
         transform="matrix(0.43753699,-0.0096245,0.02351804,1.0691489,44.148558,986.07253)"
         d="m 17.493333,27.946667 a 3.6977777,2.2755556 0 0 1 -3.697778,2.275555 3.6977777,2.2755556 0 0 1 -3.697778,-2.275555 3.6977777,2.2755556 0 0 1 3.697778,-2.275556 3.6977777,2.2755556 0 0 1 3.697778,2.275556 z"
         sodipodi:ry="2.2755556"
         sodipodi:rx="3.6977777"
         sodipodi:cy="27.946667"
         sodipodi:cx="13.795555"
         id="path3796-0"
         style="fill:#ff0000;fill-opacity:1;stroke:#000000;stroke-opacity:1"
         sodipodi:type="arc" />
    </g>
    <path
       sodipodi:type="arc"
       style="opacity:0.2;fill:#ff0000;fill-opacity:1;stroke:#000000;stroke-opacity:1"
       id="path3792-5"
       sodipodi:cx="19.768888"
       sodipodi:cy="22.151112"
       sodipodi:rx="1.4222223"
       sodipodi:ry="3.8044446"
       d="m 21.191111,22.151112 a 1.4222223,3.8044446 0 0 1 -1.422223,3.804444 1.4222223,3.8044446 0 0 1 -1.422222,-3.804444 1.4222223,3.8044446 0 0 1 1.422222,-3.804445 1.4222223,3.8044446 0 0 1 1.422223,3.804445 z"
       transform="matrix(0.60017777,-0.79986662,0.79986662,0.60017777,33.431377,1020.1669)" />
    <path
       sodipodi:type="arc"
       style="opacity:0.2;fill:#ff0000;fill-opacity:1;stroke:#000000;stroke-opacity:1"
       id="path3792"
       sodipodi:cx="19.768888"
       sodipodi:cy="22.151112"
       sodipodi:rx="1.4222223"
       sodipodi:ry="3.8044446"
       d="m 21.191111,22.151112 a 1.4222223,3.8044446 0 0 1 -1.422223,3.804444 1.4222223,3.8044446 0 0 1 -1.422222,-3.804444 1.4222223,3.8044446 0 0 1 1.422222,-3.804445 1.4222223,3.8044446 0 0 1 1.422223,3.804445 z"
       transform="matrix(0.70523854,0.70897013,-0.70897013,0.70523854,27.898675,980.79744)" />
    <path
       sodipodi:type="arc"
       style="opacity:0.2;fill:#ff0000;fill-opacity:1;stroke:#000000;stroke-opacity:1"
       id="path3772"
       sodipodi:cx="10.204445"
       sodipodi:cy="7.6088891"
       sodipodi:rx="3.3777778"
       sodipodi:ry="1.6355555"
       d="M 13.582223,7.6088891 A 3.3777778,1.6355555 0 0 1 10.204445,9.2444446 3.3777778,1.6355555 0 0 1 6.8266671,7.6088891 3.3777778,1.6355555 0 0 1 10.204445,5.9733336 3.3777778,1.6355555 0 0 1 13.582223,7.6088891 Z"
       transform="matrix(0.67152301,-0.45870303,0.49713374,0.88903521,14.879132,997.95655)" />
    <path
       sodipodi:type="arc"
       style="opacity:0.2;fill:#000000;fill-opacity:1;stroke:#000000;stroke-opacity:1"
       id="path3772-7"
       sodipodi:cx="10.204445"
       sodipodi:cy="7.6088891"
       sodipodi:rx="3.3777778"
       sodipodi:ry="1.6355555"
       d="M 13.582223,7.6088891 A 3.3777778,1.6355555 0 0 1 10.204445,9.2444446 3.3777778,1.6355555 0 0 1 6.8266671,7.6088891 3.3777778,1.6355555 0 0 1 10.204445,5.9733336 3.3777778,1.6355555 0 0 1 13.582223,7.6088891 Z"
       transform="matrix(-0.7939043,-0.27484169,0.25491287,-0.86049979,69.690659,1011.9207)" />
    <g
       id="g4312"
       transform="matrix(-0.30935816,-0.95094559,0.95094559,-0.30935816,-919.8718,1372.1354)"
       style="opacity:0.2;fill:#ff0000">
      <path
         transform="matrix(0.49816262,0.01101159,-0.0259843,0.98356126,33.573584,989.84933)"
         d="m 20.906667,29.475555 a 3.3777778,1.1733333 0 0 1 -3.377778,1.173334 3.3777778,1.1733333 0 0 1 -3.377778,-1.173334 3.3777778,1.1733333 0 0 1 3.377778,-1.173333 3.3777778,1.1733333 0 0 1 3.377778,1.173333 z"
         sodipodi:ry="1.1733333"
         sodipodi:rx="3.3777778"
         sodipodi:cy="29.475555"
         sodipodi:cx="17.528889"
         id="path3766"
         style="fill:#ff0000;fill-opacity:1;stroke:#000000;stroke-opacity:1"
         sodipodi:type="arc" />
      <path
         transform="matrix(0.39355872,-0.00844164,0.02458259,1.1460676,35.437939,984.17466)"
         d="m 17.493333,27.946667 a 3.6977777,2.2755556 0 0 1 -3.697778,2.275555 3.6977777,2.2755556 0 0 1 -3.697778,-2.275555 3.6977777,2.2755556 0 0 1 3.697778,-2.275556 3.6977777,2.2755556 0 0 1 3.697778,2.275556 z"
         sodipodi:ry="2.2755556"
         sodipodi:rx="3.6977777"
         sodipodi:cy="27.946667"
         sodipodi:cx="13.795555"
         id="path3796"
         style="fill:#ff0000;fill-opacity:1;stroke:#000000;stroke-opacity:1"
         sodipodi:type="arc" />
    </g>
    <g
       id="g4303"
       transform="matrix(-0.02089795,-0.99978162,0.99978162,-0.02089795,-960.84812,1075.6061)"
       style="opacity:0.2;fill:#ff0000">
      <path
         transform="matrix(0.77053203,0.12335422,-0.06851811,0.95498434,34.228385,987.9455)"
         d="M 21.617778,9.8488894 A 4.8355556,3.9466667 0 0 1 16.782223,13.795556 4.8355556,3.9466667 0 0 1 11.946667,9.8488894 4.8355556,3.9466667 0 0 1 16.782223,5.9022226 4.8355556,3.9466667 0 0 1 21.617778,9.8488894 Z"
         sodipodi:ry="3.9466667"
         sodipodi:rx="4.8355556"
         sodipodi:cy="9.8488894"
         sodipodi:cx="16.782223"
         id="path3770"
         style="fill:#ff0000;fill-opacity:1;stroke:#000000;stroke-opacity:1"
         sodipodi:type="arc" />
      <path
         transform="matrix(1.1870228,-0.07665294,0.07665294,1.1870228,20.141619,989.3872)"
         d="M 20.479999,9.7066669 A 0.39111111,0.39111111 0 0 1 20.088888,10.097778 0.39111111,0.39111111 0 0 1 19.697777,9.7066669 0.39111111,0.39111111 0 0 1 20.088888,9.3155558 0.39111111,0.39111111 0 0 1 20.479999,9.7066669 Z"
         sodipodi:ry="0.39111111"
         sodipodi:rx="0.39111111"
         sodipodi:cy="9.7066669"
         sodipodi:cx="20.088888"
         id="path3794"
         style="fill:#ff0000;fill-opacity:1;stroke:#000000;stroke-opacity:1"
         sodipodi:type="arc" />
      <path
         transform="matrix(1.2974769,-0.0837856,0.06987435,1.0820517,21.285742,990.4248)"
         d="M 20.479999,9.7066669 A 0.39111111,0.39111111 0 0 1 20.088888,10.097778 0.39111111,0.39111111 0 0 1 19.697777,9.7066669 0.39111111,0.39111111 0 0 1 20.088888,9.3155558 0.39111111,0.39111111 0 0 1 20.479999,9.7066669 Z"
         sodipodi:ry="0.39111111"
         sodipodi:rx="0.39111111"
         sodipodi:cy="9.7066669"
         sodipodi:cx="20.088888"
         id="path3794-0"
         style="fill:#ff0000;fill-opacity:1;stroke:#000000;stroke-opacity:1"
         sodipodi:type="arc" />
    </g>
    <path
       style="display:inline;opacity:0.65503875;fill:#000000;fill-opacity:1;fill-rule:nonzero;stroke:#000000;stroke-width:0.01763391px;stroke-linecap:butt;stroke-linejoin:miter;stroke-opacity:1"
       d="m 47.481168,1004.3876 -0.518761,0.061 -0.609662,0.1227 0.248381,0.3682 -0.609083,0.3472 -0.316119,-0.2653 -0.563922,0.5108 0.360701,0.2455 -0.316121,0.6131 -0.405862,-0.1228 -0.09032,0.8177 0.361281,-0.02 0.180061,0.6132 -0.405862,0.1841 0.270961,0.6136 0.405862,-0.2454 0.42902,0.4494 -0.36128,0.3273 0.676822,0.3273 0.15806,-0.2864 0.654822,0.225 -0.158061,0.3473 0.789722,0.02 0.06774,-0.3677 0.654242,-0.1023 0.158059,0.3267 0.721983,-0.3267 -0.225801,-0.3068 0.383861,-0.4291 0.361281,0.245 0.383281,-0.5723 -0.270382,-0.1227 0.134901,-0.5517 0.406441,0.061 -0.04516,-0.6137 -0.293542,0.02 -0.1129,-0.5723 0.383861,-0.082 -0.338702,-0.5313 -0.3607,0.1432 -0.248381,-0.3886 0.270961,-0.2455 -0.474181,-0.3677 -0.18064,0.2245 -0.428443,-0.204 0.112901,-0.2864 -0.5645,-0.1227 -0.135481,0.3273 -0.518762,-0.061 -0.02258,-0.3477 z m 0.08453,1.6663 c 0.539027,0 0.976152,0.396 0.976152,0.8843 0,0.4883 -0.437125,0.8838 -0.976152,0.8838 -0.539028,0 -0.976152,-0.3955 -0.976152,-0.8838 0,-0.4883 0.437124,-0.8843 0.976152,-0.8843 z"
       id="path3838-3"
       inkscape:connector-curvature="0" />
    <path
       inkscape:connector-curvature="0"
       id="path3042"
       d="m 45.042137,1015.7852 0.765135,-1.6097 -0.05743,-0.695 -0.517313,-0.3734 -0.974321,0.1349 -0.07529,1.1271 -0.778363,0.7707 -0.661994,-0.6868 0.398064,-1.2964 0.271284,-0.4913 -0.243149,-0.6782 -0.837262,-0.018 -0.7312,0.813 0.153241,0.8731 c 0,0 -1.295677,0.3973 -1.161518,0.058 0.134159,-0.3389 0.309642,-1.0083 0.309642,-1.0083 l 0.171068,-0.9491 0.638339,-0.8047 -0.0929,0.01"
       style="display:inline;opacity:0.65503875;fill:none;stroke:#000000;stroke-width:0.58364755px;stroke-linecap:butt;stroke-linejoin:miter;stroke-opacity:1" />
  </g>
</svg>
